X:10
T:GAVOTTE MONTAGNE
Z: Yves BELOTTEAU
M:4/4
L:1/8
Q:1/4=120
K:C
|:fede fed/2e/2d|cef/2e/2c A3/2 z/2 A3/2 z/2 |fede fed/2e/2d|cef/2e/2c A
3/2 z/2 A3/2 z/2:|
|:fede fedg|g/2f/2efg e3/2 z/2 e3/2 z/2 |a/2a/2age fgd/2e/2d|cde/2d/2c A
3/2 z/2 A3/2 z/2:|
